!!!COM: Bach, Johann Sebastian
!!!OPR: Die Kunst der Fuge
!!!XEN: The Art of Fugue
!!!OTL:
!!!OMV: 14
!!!SCT: BWV 1080
!!!SCA: Thematisch-systematisches Verzeichnis der musikalischen Werke Johann Sebastian Bach: Bach-Werke-Verzeichnis (Schmieder)
!!!YOR: Bach Gesellschaft Edition xxv,1
!!!EED: Frances Bennion
!!!ENC: Frances Bennion
!!!CDT: 1685/3//-1750/7/28/
!!!OCY: Deutschland
!!!YEC: Copyright (c) 1994, 2000 Center for Computer Assisted Research in the Humanities
!!!YEM: Rights to all derivative editions reserved.
!!!YEM: Refer to licensing agreement for further details.
!!!YEN: United States of America
**kern	**kern	**kern	**kern
*k[b-]	*k[b-]	*k[b-]	*k[b-]
*d:	*d:	*d:	*d:
*clefG	*clefG	*clefC	*clefC
*M4/4	*M4/4	*M4/4	*M4/4
=1	=1	=1	=1
2aa	1r	1r	1r
4.dd	.	.	.
8ee	.	.	.
=2	=2	=2	=2
4.ff	1r	1r	1r
8gg	.	.	.
2aa	.	.	.
=3	=3	=3	=3
2bb-	1r	1r	1r
4.aa	.	.	.
8gg	.	.	.
=4	=4	=4	=4
[3..ff	1r	2d	1r
.	.	4.A	.
24ff]	.	.	.
8ee	.	.	.
8ff#	.	.	.
8gg#	.	8B	.
=5	=5	=5	=5
12aa	1r	4.c	1r
12gg	.	.	.
12ff	.	.	.
4.ee	.	.	.
.	.	8d	.
.	.	2e	.
8dd	.	.	.
8cc	.	.	.
8b	.	.	.
=6	=6	=6	=6
8a	1r	2f	1r
8g#	.	.	.
8a	.	.	.
8b	.	.	.
8cc#	.	4.e	.
8dd	.	.	.
8ee	.	.	.
8ff	.	8d	.
=7	=7	=7	=7
8gg	1r	[2c#	1r
8aa	.	.	.
8bb-	.	.	.
8gg	.	.	.
8ee	.	8c#]	.
8aa	.	8A	.
8gg	.	8B	.
8aa	.	8c#	.
=8	=8	=8	=8
8ff	1r	8d	1r
8gg	.	8e	.
8aa	.	4.f	.
8ff	.	.	.
8dd	.	.	.
8gg	.	8e	.
8ff	.	8d	.
8gg	.	8e	.
=9	=9	=9	=9
8ee	1r	8c#	2A
8ff	.	8d	.
8gg	.	4.e	.
8ee	.	.	.
4.ff	.	.	4.D
.	.	8A	.
.	.	[4d	.
8gg	.	.	8E
=10	=10	=10	=10
4.aa	1r	8d]	4.F
.	.	8e	.
.	.	4.f	.
8gg	.	.	8G
8ff	.	.	2A
8ee	.	8g	.
8dd	.	[4a	.
8cc#	.	.	.
=11	=11	=11	=11
[3..dd	1r	8a]	2B-
.	.	8g	.
.	.	8f	.
.	.	8e	.
.	.	4f	4.A
24dd]	.	.	.
8dd	.	.	.
4cc#	.	4e	.
.	.	.	8G
=12	=12	=12	=12
8dd	2dd	4A	[2F
8b-	.	.	.
8a	.	8B	.
8g	.	8c#	.
4f	4.a	2d	8F]
.	.	.	8E
[4ff	.	.	8F
.	8b	.	8G
=13	=13	=13	=13
8ff]	4.cc	4.c	[2A
8ee	.	.	.
8ff#	.	.	.
8gg#	8dd	8B	.
[2aa	2ee	[2c	8A]
.	.	.	8G
.	.	.	8F
.	.	.	8E
=14	=14	=14	=14
3..aa_	2ff	8c]	2D
.	.	8c	.
.	.	8B-	.
.	.	8A	.
.	4.ee	4.B-	[2G
24aa]	.	.	.
8aa]	.	.	.
8gg	.	.	.
8ff	8dd	16A	.
.	.	16G	.
=15	=15	=15	=15
4ee	[2cc#	2A	8G]
.	.	.	8G
2aa	.	.	8F
.	.	.	8E
.	8cc#]	2r	[2F
.	8a	.	.
4gg	8b	.	.
.	8cc#	.	.
=16	=16	=16	=16
2ff	[2dd	1r	8F]
.	.	.	8E
.	.	.	8F
.	.	.	8G
[2ee	8dd]	.	[2A
.	8dd	.	.
.	8cc	.	.
.	8b	.	.
=17	=17	=17	=17
4ee]	[2cc	1r	8A]
.	.	.	8B-
8ff#	.	.	8A
8gg	.	.	8G
4aa	8cc]	.	4.F#
.	8cc	.	.
[4dd	8b-	.	.
.	8a	.	16E
.	.	.	16F#
=18	=18	=18	=18
4dd]	[2b-	1r	8G
.	.	.	8A
8ee	.	.	8G
8ff	.	.	8F
4gg	8b-]	.	4.E
.	8b-	.	.
[4cc	8a	.	.
.	8g	.	16D
.	.	.	16E
=19	=19	=19	=19
8cc]	[2a	1r	4F
8b	.	.	.
8cc#	.	.	8E
8dd	.	.	8D
4ee	8a]	.	4.C#
.	8g	.	.
[4a	8f	.	.
.	8e	.	16BB
.	.	.	16C#
=20	=20	=20	=20
8a]	2.f	1r	[2D
8a	.	.	.
8dd	.	.	.
8cc#	.	.	.
[2dd	.	.	8D]
.	.	.	8FF
.	4f	.	8BB-
.	.	.	8AA
=21	=21	=21	=21
4dd]	2.e	1r	8GG
.	.	.	8AA
4dd	.	.	8BB-
.	.	.	8GG
2cc#	.	.	8EE
.	.	.	8AA
.	4e	.	8GG
.	.	.	8AA
=22	=22	=22	=22
8dd	2a	4r	8FF
8b-	.	.	8GG
4.cc	.	4F	8AA
.	.	.	8FF
.	4.d	4G	4.BB-
8a	.	.	.
[4b-	.	4D	.
.	8e	.	8GG
=23	=23	=23	=23
8b-]	4.f	4r	4.D
8a	.	.	.
4.dd	.	4B-	.
.	8g	.	8E
.	2a	4A	4.F
8cc#	.	.	.
[4dd	.	4d	.
.	.	.	8F#
=24	=24	=24	=24
8dd]	2b-	8G	2G
8cc#	.	8A	.
8dd	.	8B-	.
8ee	.	8c	.
4.ff	4.a	8d	8F
.	.	8e	8G
.	.	[4f	4A
8ee	8g	.	.
=25	=25	=25	=25
[3..dd	[2f	8f]	4B-
.	.	8e	.
.	.	8d	2A
.	.	8c	.
.	8f]	2B-	.
24dd]	.	.	.
8cc#	8e	.	.
8dd	8f	.	[4G
8ee	8g	.	.
=26	=26	=26	=26
4cc#	4a	2.A	8G]
.	.	.	8G
2.r	4.dd	.	8F
.	.	.	8E
.	.	.	[2F
.	8cc	.	.
.	8b-	8d	.
.	8a	8c	.
=27	=27	=27	=27
1r	4g	8B-	4F]
.	.	8A	.
.	4.cc	2G	8E
.	.	.	8D
.	.	.	[2E
.	8b-	.	.
.	8a	8c	.
.	8g	8B-	.
=28	=28	=28	=28
4r	4f	8A	4E]
.	.	8G	.
8dd	2b-	4.F	8D
8ee	.	.	8C#
8ff	.	.	[2D
8gg	.	8E	.
8aa	4a	4F	.
8ff	.	.	.
=29	=29	=29	=29
8gg	4ee	4B-	2D]
8bb-	.	.	.
8aa	2.r	4E	.
8bb-	.	.	.
8ee	.	[2A	2C#
8ff	.	.	.
8gg	.	.	.
8ee	.	.	.
=30	=30	=30	=30
8ff	4r	8A]	2D
8ee	.	8G	.
4.dd	4d	8F	.
.	.	8G	.
.	4f	4A	4.AA
8b	.	.	.
8cc	4c	4E	.
8dd	.	.	8BB
=31	=31	=31	=31
8ee	4r	4.A	4.C
8dd	.	.	.
4.cc	4a	.	.
.	.	8B	8D
.	4g	8c	2E
8b	.	8d	.
[4ee	4cc	8c	.
.	.	8B	.
=32	=32	=32	=32
4ee]	8f	2.A	2F
.	8g	.	.
4dd	8a	.	.
.	8b	.	.
4cc	8cc	.	4.E
.	8dd	.	.
4b	[4ee	4G#	.
.	.	.	8D
=33	=33	=33	=33
2a	8ee]	4A	[2C
.	8dd	.	.
.	8cc	4E	.
.	8b	.	.
2r	[2a	4e	8C]
.	.	.	8BB
.	.	8d	8C
.	.	8c	8D
=34	=34	=34	=34
1r	8a]	4B	8E
.	8f#	.	8D#
.	4g#	8E	4E
.	.	8F#	.
.	2r	8G#	4r
.	.	8A	.
.	.	8B	4E
.	.	8c	.
=35	=35	=35	=35
1r	1r	8d	8F#
.	.	8e	8G#
.	.	8f	2A
.	.	8d	.
.	.	8B	.
.	.	8e	.
.	.	8d	8G#
.	.	8e	8F#
=36	=36	=36	=36
4r	1r	8c#	4G
.	.	8A	.
8a	.	4d	4F
8b	.	.	.
8cc#	.	4G	4E
8dd	.	.	.
8ee	.	4B-	4D
8ff	.	.	.
=37	=37	=37	=37
8gg	1r	4E	4C#
8aa	.	.	.
8bb-	.	2D	8D
8gg	.	.	8BB-
8ee	.	.	4GG
8aa	.	.	.
8gg	.	4C#	4AA
8aa	.	.	.
=38	=38	=38	=38
8ff	4r	4D	4DD
8gg	.	.	.
8ff	8d	2.r	2.r
8ee	8e	.	.
8dd	8f	.	.
8ee	8g	.	.
8ff	8a	.	.
8dd	8b-	.	.
=39	=39	=39	=39
8ee	8cc	1r	1r
8ff#	8dd	.	.
2gg	8ee-	.	.
.	8cc	.	.
.	8a	.	.
.	8dd	.	.
4ff#	8cc	.	.
.	8dd	.	.
=40	=40	=40	=40
4gg	8b-	1r	4r
.	8cc	.	.
4dd	8b-	.	8GG
.	8a	.	8AA
[2gg	8g	.	8BB-
.	8a	.	8C
.	8b-	.	8D
.	8g	.	8E
=41	=41	=41	=41
4gg]	8a	1r	8F
.	8b	.	8G
8ff	2cc	.	8A
8ee	.	.	8F
4ff	.	.	8D
.	.	.	8G
4dd	[4b-	.	8F
.	.	.	8G
=42	=42	=42	=42
2.cc	4b-]	1r	8E
.	.	.	8F
.	4e	.	8G
.	.	.	8E
.	[2a	.	8C
.	.	.	8F
4cc	.	.	8E
.	.	.	8F
=43	=43	=43	=43
[3..ff	4a]	1r	8D
.	.	.	8E
.	4dd	.	8F
.	.	.	8D
.	[2g	.	8BB
24ff]	.	.	.
8gg	.	.	8E
8ff	.	.	8D
8gg	.	.	8E
=44	=44	=44	=44
4ee	8g]	2A	2C#
.	8g	.	.
4a	8f	.	.
.	8e	.	.
4b-	8f	4.D	[2D
.	8e	.	.
4f	8d	.	.
.	8c#	8E	.
=45	=45	=45	=45
4r	8d	4.F	4D]
.	8e	.	.
4dd	4.f	.	4BB-
.	.	8G	.
4cc	.	2A	4.F
.	8e	.	.
4ff	[4d	.	.
.	.	.	8D
=46	=46	=46	=46
8b-	4d]	2B-	4.G
8cc	.	.	.
8dd	8dd	.	.
8ee	8cc#	.	8G
8ff	8dd	4.A	4.F
8gg	8ee	.	.
[4aa	[4ff	.	.
.	.	8G	8E
=47	=47	=47	=47
8aa]	4ff]	[2F	4.D
8gg	.	.	.
8ff	4a	.	.
8ee	.	.	8C
2dd	4b-	8F]	2BB-
.	.	8E	.
.	8d	8F	.
.	8e	8G	.
=48	=48	=48	=48
[3..cc	8f	8A	2F
.	8e	8c	.
.	8f	8d	.
.	8g	8e	.
.	4.a	4.f	2r
24cc]	.	.	.
8cc	.	.	.
8dd	.	.	.
8ee	8g	8e	.
=49	=49	=49	=49
[3..ff	8f	4.d	2r
.	8a	.	.
.	8b-	.	.
.	8cc	8c	.
.	[2dd	4.B-	8r
24ff]	.	.	.
8ff	.	.	8D
8gg	.	.	8E
8aa	.	8A	8F
=50	=50	=50	=50
2bb-	4.dd]	8G	2G
.	.	8d	.
.	.	8e	.
.	8cc	8f#	.
8r	4.b-	4.g	2r
8dd	.	.	.
8ee	.	.	.
8ff	8a	8f	.
=51	=51	=51	=51
[3..gg	8g	4.e	2r
.	8b	.	.
.	8cc	.	.
.	8dd	8d	.
.	[2ee	4.c	8r
24gg]	.	.	.
8gg	.	.	8E
8aa	.	.	8F
8bb-	.	8B-	8G
=52	=52	=52	=52
2ccc	4.ee]	8A	2A
.	.	8e	.
.	.	8f	.
.	8dd	8g	.
8r	4.cc	4.a	2r
8ee	.	.	.
8ff	.	.	.
8gg	8b-	8g	.
=53	=53	=53	=53
2aa	2cc	8f	4r
.	.	8e	.
.	.	8f	4A
.	.	8c	.
4.dd	4.f	8d	4B-
.	.	8c	.
.	.	8d	4F
8ee	8g	8B-	.
=54	=54	=54	=54
4.ff	4.a	8A	4r
.	.	8G	.
.	.	4.F	4D
8gg	8b-	.	.
2aa	2cc	.	4C
.	.	8E	.
.	.	8F	4F
.	.	[8A	.
=55	=55	=55	=55
2bb-	2dd	4.A]	8BB-
.	.	.	8C
.	.	.	8D
.	.	8G	8E
4.aa	4.cc	4.A	8F
.	.	.	8G
.	.	.	[4A
8gg	8b-	8B-	.
=56	=56	=56	=56
[3..ff	[2a	2.c	8A]
.	.	.	8G
.	.	.	8F
.	.	.	8E
.	8a]	.	2D
24ff]	.	.	.
8ee	8g	.	.
8ff	8a	[4F	.
8gg	8b-	.	.
=57	=57	=57	=57
8aa	2cc	8F]	2C
8ff	.	8D	.
4.gg	.	8E	.
.	.	8G	.
.	2r	4.c	2r
8dd	.	.	.
8ee	.	.	.
8gg	.	8B-	.
=58	=58	=58	=58
2cc	8r	[2A	1r
.	8e	.	.
.	8f	.	.
.	8a	.	.
[2b-	4d	8A]	.
.	.	8F	.
.	4e	8G	.
.	.	8c	.
=59	=59	=59	=59
8b-]	4.f	2F	1r
8g	.	.	.
8a	.	.	.
8cc	8e	.	.
[2ff	8d	4r	.
.	8A	.	.
.	8B-	[4B-	.
.	8d	.	.
=60	=60	=60	=60
4ff]	[2g	8B-]	1r
.	.	8D	.
4b	.	8E	.
.	.	8G	.
[2ee	8g]	4.C#	.
.	8b-	.	.
.	8a	.	.
.	8e	8C#	.
=61	=61	=61	=61
4ee]	2f	8D	1r
.	.	8E	.
4.dd	.	8F	.
.	.	8A	.
.	2r	4.d	.
8ee	.	.	.
8ff	.	.	.
8aa	.	8c	.
=62	=62	=62	=62
2dd	8r	[2B-	1r
.	8f#	.	.
.	8g	.	.
.	8b-	.	.
[2cc	4e	8B-]	.
.	.	8G	.
.	4f#	8A	.
.	.	8d	.
=63	=63	=63	=63
8cc]	4g	4G	2G
8a	.	.	.
8b	4g	8d	.
8cc#	.	8e	.
4dd	4b-	8f	4.D
.	.	8e	.
4a	4f	8d	.
.	.	8c#	8E
=64	=64	=64	=64
4r	4r	8d	4.F
.	.	8A	.
4ff	4dd	4.a	.
.	.	.	8G
4ee	4cc	.	2A
.	.	8e	.
4aa	4ff	8c	.
.	.	8f	.
=65	=65	=65	=65
8dd	8b-	4g	2B-
8ee	8cc	.	.
8ff	8dd	4d	.
8gg	8ee	.	.
8aa	8ff	8r	4.A
8bb-	8gg	8d	.
[4ccc	[4aa	8c	.
.	.	8B-	8G
=66	=66	=66	=66
8ccc]	8aa]	4.A	[2F
8bb-	8gg	.	.
8aa	8ff	.	.
8gg	8ee	8c#	.
2ff	2dd	4d	8F]
.	.	.	8E
.	.	4A	8F
.	.	.	8G
=67	=67	=67	=67
2ee	2cc#	8a	2A
.	.	8e	.
.	.	8d	.
.	.	8e	.
2r	2r	4f	8r
.	.	.	8A
.	.	4c#	8G
.	.	.	8A
=68	=68	=68	=68
3..r	8r	4d	4B-
.	8g	.	.
.	8a	4A	4F#
.	8g	.	.
.	4f#	4c	4A
24r	.	.	.
8cc	.	.	.
8dd	4a	4F#	4D
8cc	.	.	.
=69	=69	=69	=69
2b-	8r	4G	4E-
.	8g	.	.
.	8f	4c	4E
.	8g	.	.
2r	4a	8r	4F
.	.	8c	.
.	4e	8B-	4r
.	.	8c	.
=70	=70	=70	=70
8r	4f	4d	2r
8ff	.	.	.
8gg	4c	4A	.
8ff	.	.	.
4ee	4g	4c	8r
.	.	.	8E
4aa	4ee	4c#	8F
.	.	.	8E
=71	=71	=71	=71
8ff	4a	4d	4D
8aa	.	.	.
8bb-	4.r	4c	2F
8aa	.	.	.
4gg	.	4B-	.
.	8dd	.	.
4ccc	8ee-	4G	[4E-
.	8dd	.	.
=72	=72	=72	=72
4ff	4cc	8A	4E-]
.	.	8c	.
4bb-	4ff	8B-	4D
.	.	8c	.
4r	4b-	4d	8r
.	.	.	8F
[4ff	4cc	4A	8E-
.	.	.	8F
=73	=73	=73	=73
4ff]	8r	4B-	4G
.	8g	.	.
2ee-	8a	4.c	4C
.	8g	.	.
.	4f	.	2D
.	.	8A	.
[4dd	4b-	8B-	.
.	.	8A	.
=74	=74	=74	=74
4dd]	8r	4G	4E-
.	8e-	.	.
2cc	8f	4c	4AA
.	8e-	.	.
.	4d	8r	2BB-
.	.	8F	.
[4b-	4g	8G	.
.	.	8F	.
=75	=75	=75	=75
4b-]	8r	4E-	4C
.	8c	.	.
4.a	8d	4A	4FF#
.	8c	.	.
.	4B-	8r	2GG
8g	.	8D	.
[4gg	[4b-	8E-	.
.	.	8C#	.
=76	=76	=76	=76
8gg]	8b-]	4D	2DD
8ee	8g	.	.
4ff#	4.a	4r	.
[2ff	.	4.d	2r
.	8g	.	.
.	8f	.	.
.	8e-	8c	.
=77	=77	=77	=77
4ff]	4d	8B	1r
.	.	8A	.
8ee-	4.g	4G	.
8dd	.	.	.
[2ee-	.	4.c	.
.	8f	.	.
.	8e-	.	.
.	8d	8B-	.
=78	=78	=78	=78
4ee-]	4c	8A	1r
.	.	8G	.
8dd	4.f	4F	.
8cc	.	.	.
8dd	.	4.B-	.
8ee-	8e-	.	.
[4ff	8d	.	.
.	8c	8A	.
=79	=79	=79	=79
8ff]	4.B-	1G	1r
8dd	.	.	.
8ee	.	.	.
8ff	8A	.	.
4gg	8B-	.	.
.	8c	.	.
[4b-	8d	.	.
.	8e	.	.
=80	=80	=80	=80
8b-]	4f	4.F	1r
8g	.	.	.
8a	4c	.	.
8b-	.	8G	.
8cc	2r	8A	.
8dd	.	8B-	.
8ee-	.	8c	.
8cc	.	8A	.
=81	=81	=81	=81
4dd	8r	4B-	4r
.	8cc	.	.
4ff	8b-	4F	4D
.	8a	.	.
4.b-	8g	4G	4E-
.	8f	.	.
.	8g	4D	4BB-
8cc	8a	.	.
=82	=82	=82	=82
4.dd	8b-	4r	4r
.	8a	.	.
.	8b-	4B-	4G
8ee	8g	.	.
2ff	8cc	4A	4F
.	8ee-	.	.
.	8dd	4d	4B-
.	8cc	.	.
=83	=83	=83	=83
2gg	4b-	8G	8E-
.	.	8A	8F
.	4ee-	8B-	8G
.	.	8c	8A
4.ff	8r	8d	8B-
.	8ee-	8e-	8c
.	8dd	[4f	[4d
8ee-	8cc	.	.
=84	=84	=84	=84
[3..dd	8b-	8f]	8d]
.	8a	8e-	8c
.	8g	8d	8B-
.	8a	8c	8A
.	8b-	2B-	2G
24dd]	.	.	.
8cc	8a	.	.
8dd	8b-	.	.
8ee	8g	.	.
=85	=85	=85	=85
4ff	4cc	4A	2F
8f	2r	4f	.
8g	.	.	.
8a	.	4e-	2r
8b-	.	.	.
8cc	4f	4d	.
8dd	.	.	.
=86	=86	=86	=86
8ee-	8g	2c	1r
8ff	8a	.	.
8gg	2b-	.	.
8ee-	.	.	.
8cc	.	2f	.
8ff	.	.	.
8ee-	[4a	.	.
8ff	.	.	.
=87	=87	=87	=87
8dd	4a]	8B-	1r
8ee-	.	8c	.
8ff	4d	8d	.
8dd	.	8B-	.
4b-	8r	8e-	.
.	8g	8d	.
[4gg	8a	8c	.
.	8b-	8B-	.
=88	=88	=88	=88
4gg]	8cc	8A	1r
.	8dd	8B-	.
2gg	8ee-	8c	.
.	8cc	8A	.
.	8a	4d	.
.	8dd	.	.
4ff#	8cc	4D	.
.	8dd	.	.
=89	=89	=89	=89
8gg	2b-	4G	1r
8ff	.	.	.
8ee-	.	4.g	.
8dd	.	.	.
4cc#	4a	.	.
.	.	8f	.
4dd	[4b-	8e	.
.	.	8d	.
=90	=90	=90	=90
[3..ee	8b-]	8c#	1r
.	8a	8d	.
.	8g	8e	.
.	8a	8c#	.
.	[2f	8d	.
24ee]	.	.	.
8a	.	8c	.
8dd	.	8B-	.
8cc	.	8A	.
=91	=91	=91	=91
[1b-	8f]	8G	1r
.	8a	8D	.
.	8g	8E	.
.	8f	8F	.
.	4e	8G	.
.	.	8A	.
.	4d	8B-	.
.	.	8G	.
=92	=92	=92	=92
8b-]	8c#	1A	1r
8b-	8d	.	.
8a	4.e	.	.
8g	.	.	.
4.f	.	.	.
.	8e	.	.
.	[4d	.	.
8f	.	.	.
=93	=93	=93	=93
8e	4d]	4r	2A
4a	.	.	.
.	4c#	4A	.
8g	.	.	.
8f	4d	4B-	4.D
8e	.	.	.
8f	4A	4F	.
8g	.	.	8E
=94	=94	=94	=94
8a	4r	4r	4.F
8g	.	.	.
8a	4f	4d	.
8b-	.	.	8G
8cc	4e	4c	2A
8dd	.	.	.
8ee-	4a	4f	.
8cc	.	.	.
=95	=95	=95	=95
2dd	8d	8B-	2B-
.	8e	8c	.
.	8f	8d	.
.	8g	8e	.
4cc	8a	8f	4.A
.	8b-	8g	.
8ff	[4cc	[4a	.
8ee	.	.	8G
=96	=96	=96	=96
4.ff	8cc]	8a]	[2F
.	8b-	8g	.
.	8a	8f	.
8cc#	8g	8e	.
[2dd	8f	4.d	8F]
.	8g	.	8E
.	[4a	.	8F
.	.	8e	8G
=97	=97	=97	=97
2.dd]	1a]	4f	1A
.	.	8e	.
.	.	8d	.
.	.	8e	.
.	.	8f	.
4cc#	.	[4g	.
=98	=98	=98	=98
2dd	2a	4g]	2D
.	.	4f#	.
2r	2r	2r	2r
==	==	==	==
*-	*-	*-	*-
!!!RWG1: This file contains only pitch and duration data.
!!!RWG2: Transposing instruments are not transposed.
!!!RWG3: Spines may have incompatible meters.
!!!RWG4: Durations of rests and tied notes may be interpreted.
!!!RWG: Key is interpreted using the Humdrum key tool.
!!!AFT: stage1
!!!END: 1997/04/15/
!!format changes:
!!content changes:
!!public access: complete
!!!KEY: 2703532251
!!!EMD: Converted from MuseData to Humdrum Dec 19, 2000, by Andreas Kornstaedt using muse2kern.
